svg/fluentui-system-icons/ic_fluent_cloud_dismiss_16_regular.svg

<svg width="16" height="16" viewBox="0 0 16 16" fill="none" xmlns="http://www.w3.org/2000/svg">
<path d="M8 3C6.34315 3 5 4.34315 5 6C5 6.27614 4.77614 6.5 4.5 6.5H4.25C3.00736 6.5 2 7.50736 2 8.75C2 9.99264 3.00736 11 4.25 11H5.02242C5.05337 11.3434 5.11588 11.6777 5.20703 12H4.25C2.45507 12 1 10.5449 1 8.75C1 7.029 2.33769 5.62043 4.03004 5.50733C4.27283 3.53062 5.95767 2 8 2C9.92958 2 11.54 3.36628 11.9167 5.1842C11.5678 5.09145 11.2053 5.03214 10.8328 5.0099C10.4237 3.83954 9.30992 3 8 3ZM15 10.5C15 12.9853 12.9853 15 10.5 15C8.01472 15 6 12.9853 6 10.5C6 8.01472 8.01472 6 10.5 6C12.9853 6 15 8.01472 15 10.5ZM12.3536 9.35355C12.5488 9.15829 12.5488 8.84171 12.3536 8.64645C12.1583 8.45118 11.8417 8.45118 11.6464 8.64645L10.5 9.79289L9.35355 8.64645C9.15829 8.45118 8.84171 8.45118 8.64645 8.64645C8.45118 8.84171 8.45118 9.15829 8.64645 9.35355L9.79289 10.5L8.64645 11.6464C8.45118 11.8417 8.45118 12.1583 8.64645 12.3536C8.84171 12.5488 9.15829 12.5488 9.35355 12.3536L10.5 11.2071L11.6464 12.3536C11.8417 12.5488 12.1583 12.5488 12.3536 12.3536C12.5488 12.1583 12.5488 11.8417 12.3536 11.6464L11.2071 10.5L12.3536 9.35355Z" fill="#212121"/>
</svg>

<svg xmlns="http://www.w3.org/2000/svg" width="16" height="16"><path d="M8 3a3 3 0 0 0-3 3 .5.5 0 0 1-.5.5h-.25a2.25 2.25 0 0 0 0 4.5h.772a5.5 5.5 0 0 0 .185 1H4.25a3.25 3.25 0 0 1-.22-6.493 4 4 0 0 1 7.887-.323 5.49 5.49 0 0 0-1.084-.174A3.001 3.001 0 0 0 8 3Zm7 7.5a4.5 4.5 0 1 1-9 0 4.5 4.5 0 0 1 9 0Zm-2.646-1.146a.5.5 0 0 0-.708-.708L10.5 9.793 9.354 8.646a.5.5 0 1 0-.708.708L9.793 10.5l-1.147 1.146a.5.5 0 0 0 .708.708l1.146-1.147 1.146 1.147a.5.5 0 0 0 .708-.708L11.207 10.5l1.147-1.146Z"/></svg>
